other/shell.svg

<?xml version="1.0" encoding="UTF-8" standalone="no"?>
<svg
   xmlns:dc="http://purl.org/dc/elements/1.1/"
   xmlns:cc="http://creativecommons.org/ns#"
   xmlns:rdf="http://www.w3.org/1999/02/22-rdf-syntax-ns#"
   xmlns:svg="http://www.w3.org/2000/svg"
   xmlns="http://www.w3.org/2000/svg"
   xmlns:sodipodi="http://sodipodi.sourceforge.net/DTD/sodipodi-0.dtd"
   xmlns:inkscape="http://www.inkscape.org/namespaces/inkscape"
   width="48"
   height="48"
   viewBox="0 0 48 48"
   version="1.1"
   id="svg4545"
   sodipodi:docname="shell.svg"
   inkscape:version="0.92.1 r">
  <metadata
     id="metadata4551">
    <rdf:RDF>
      <cc:Work
         rdf:about="">
        <dc:format>image/svg+xml</dc:format>
        <dc:type
           rdf:resource="http://purl.org/dc/dcmitype/StillImage" />
        <dc:title></dc:title>
      </cc:Work>
    </rdf:RDF>
  </metadata>
  <defs
     id="defs4549" />
  <sodipodi:namedview
     pagecolor="#ffffff"
     bordercolor="#666666"
     borderopacity="1"
     objecttolerance="10"
     gridtolerance="10"
     guidetolerance="10"
     inkscape:pageopacity="0"
     inkscape:pageshadow="2"
     inkscape:window-width="640"
     inkscape:window-height="480"
     id="namedview4547"
     showgrid="false"
     inkscape:pagecheckerboard="true"
     inkscape:showpageshadow="false"
     inkscape:object-paths="true"
     inkscape:snap-intersection-paths="true"
     inkscape:snap-smooth-nodes="true"
     inkscape:snap-midpoints="true"
     inkscape:snap-bbox="true"
     inkscape:bbox-paths="true"
     inkscape:bbox-nodes="true"
     inkscape:snap-bbox-edge-midpoints="true"
     inkscape:snap-bbox-midpoints="true"
     inkscape:snap-object-midpoints="true"
     inkscape:snap-center="true"
     inkscape:snap-text-baseline="true"
     inkscape:zoom="6.9555099"
     inkscape:cx="29.941553"
     inkscape:cy="16.217523"
     inkscape:current-layer="svg4545" />
  <path
     style="fill:#ffffff"
     d="M 6 8 C 4.892 8 4 8.892 4 10 L 4 38 C 4 39.108 4.892 40 6 40 L 42 40 C 43.108 40 44 39.108 44 38 L 44 10 C 44 8.892 43.108 8 42 8 L 6 8 z M 7.3925781 24.332031 L 11.353516 27.402344 L 15.316406 30.470703 L 11.353516 33.539062 L 7.3925781 36.607422 L 7.3925781 30.470703 L 7.3925781 24.332031 z M 17.09375 33.214844 L 28.339844 33.214844 L 28.339844 36.607422 L 17.09375 36.607422 L 17.09375 33.214844 z "
     id="rect4899" />
</svg>

<?xml version="1.0" encoding="UTF-8"?>
<svg version="1.1" viewBox="0 0 48 48" xmlns="http://www.w3.org/2000/svg">
    <path d="m6 8c-1.108 0-2 0.892-2 2v28c0 1.108 0.892 2 2 2h36c1.108 0 2-0.892 2-2v-28c0-1.108-0.892-2-2-2h-36zm1.3926 16.332l3.9609 3.0703 3.9629 3.0684-3.9629 3.0684-3.9609 3.0684v-6.1367-6.1387zm9.7012 8.8828h11.246v3.3926h-11.246v-3.3926z" fill="#fff"/>
</svg>
